( Made using CamBam )
( maison_avent_50 11/7/2020 4:29:23 PM )
( T1 : 1.0 )
N10 G21 G90 G64 G40
N20 G0 Z20.0
( T1 : 1.0 )
N30 M0
N40 M6 T1
N50 M0
( porte )
N60 G17
N70 M3 S29000
N80 G0 X65.5499 Y5.6781
N90 G1 F300.0 Z1.5
N100 G1 F500.0 Y26.5114
N110 G1 X75.5499
N120 G1 Y5.6781
( empl_toit )
N130 S29000
N140 G0 Z5.0
N150 G0 X23.2987 Y69.511
N160 G1 F300.0 Z1.0
N170 G1 F500.0 X43.2391 Y89.4514
N180 G1 X43.3805 Y89.3099
N190 G1 X23.4401 Y69.3695
N200 G1 X23.2987 Y69.511
N210 G1 F300.0 X23.0158 Y69.2281
N220 G1 F500.0 X22.733 Y69.511
N230 G1 X43.2391 Y90.0171
N240 G1 X43.9462 Y89.3099
N250 G1 X23.4401 Y68.8038
N260 G1 X23.0158 Y69.2281
N270 G0 Z5.0
N280 G0 X51.3472 Y41.4624
N290 G1 F300.0 Z1.0
N300 G1 F500.0 X71.2876 Y61.4028
N310 G1 X71.4291 Y61.2614
N320 G1 X51.4886 Y41.321
N330 G1 X51.3472 Y41.4624
N340 G1 F300.0 X51.0644 Y41.7452
N350 G1 F500.0 X71.2876 Y61.9685
N360 G1 X71.9947 Y61.2614
N370 G1 X51.4886 Y40.7553
N380 G1 X50.7815 Y41.4624
N390 G1 X51.0644 Y41.7452
N400 G0 Z5.0
N410 G0 X93.7337 Y61.3341
N420 G1 F300.0 Z1.0
N430 G1 F500.0 X93.8751 Y61.4755
N440 G1 X113.8155 Y41.5351
N450 G1 X113.6741 Y41.3937
N460 G1 X93.7337 Y61.3341
N470 G1 F300.0 X93.4508 Y61.0513
N480 G1 F500.0 X93.168 Y61.3341
N490 G1 X93.8751 Y62.0412
N500 G1 X114.3812 Y41.5351
N510 G1 X113.6741 Y40.828
N520 G1 X93.4508 Y61.0513
N530 G0 Z5.0
N540 G0 X121.7822 Y89.3827
N550 G1 F300.0 Z1.0
N560 G1 F500.0 X121.9237 Y89.5241
N570 G1 X141.8641 Y69.5837
N580 G1 X141.7227 Y69.4423
N590 G1 X121.7822 Y89.3827
N600 G1 F300.0 X121.4994 Y89.6655
N610 G1 F500.0 X121.9237 Y90.0898
N620 G1 X142.4298 Y69.5837
N630 G1 X141.7227 Y68.8766
N640 G1 X121.2166 Y89.3827
N650 G1 X121.4994 Y89.6655
( finition_contour )
N660 S29000
N670 G0 Z5.0
N680 G0 X76.9323 Y37.4281
N690 G1 F300.0 Z-0.05
N700 G1 F500.0 Y41.0948
N710 G1 X80.599
N720 G1 Y37.4281
N730 G1 X76.9323
N740 G0 Z5.0
N750 G0 X82.2656
N760 G1 F300.0 Z-0.05
N770 G1 F500.0 Y41.0948
N780 G1 X85.9323
N790 G1 Y37.4281
N800 G1 X82.2656
N810 G0 Z5.0
N820 G0 Y42.7614
N830 G1 F300.0 Z-0.05
N840 G1 F500.0 Y46.4281
N850 G1 X85.9323
N860 G1 Y42.7614
N870 G1 X82.2656
N880 G0 Z5.0
N890 G0 X80.599
N900 G1 F300.0 Z-0.05
N910 G1 F500.0 X76.9323
N920 G1 Y46.4281
N930 G1 X80.599
N940 G1 Y42.7614
N950 G0 Z5.0
N960 G0 X86.9323 Y25.1781
N970 G1 F300.0 Z-0.05
N980 G1 F500.0 X90.599
N990 G1 Y21.5114
N1000 G1 X86.9323
N1010 G1 Y25.1781
N1020 G0 Z5.0
N1030 G0 X92.2656
N1040 G1 F300.0 Z-0.05
N1050 G1 F500.0 X95.9323
N1060 G1 Y21.5114
N1070 G1 X92.2656
N1080 G1 Y25.1781
N1090 G0 Z5.0
N1100 G0 Y19.8448
N1110 G1 F300.0 Z-0.05
N1120 G1 F500.0 X95.9323
N1130 G1 Y16.1781
N1140 G1 X92.2656
N1150 G1 Y19.8448
N1160 G0 Z5.0
N1170 G0 X90.599
N1180 G1 F300.0 Z-0.05
N1190 G1 F500.0 Y16.1781
N1200 G1 X86.9323
N1210 G1 Y19.8448
N1220 G1 X90.599
N1230 G0 Z5.0
N1240 G0 X85.9323 Y79.9281
N1250 G1 F300.0 Z-0.05
N1260 G1 F500.0 X82.2656
N1270 G1 Y83.5948
N1280 G1 X85.9323
N1290 G1 Y79.9281
N1300 G0 Z5.0
N1310 G0 Y85.2614
N1320 G1 F300.0 Z-0.05
N1330 G1 F500.0 X82.2656
N1340 G1 Y88.9281
N1350 G1 X85.9323
N1360 G1 Y85.2614
N1370 G0 Z5.0
N1380 G0 X80.599
N1390 G1 F300.0 Z-0.05
N1400 G1 F500.0 X76.9323
N1410 G1 Y88.9281
N1420 G1 X80.599
N1430 G1 Y85.2614
N1440 G0 Z5.0
N1450 G0 Y83.5948
N1460 G1 F300.0 Z-0.05
N1470 G1 F500.0 Y79.9281
N1480 G1 X76.9323
N1490 G1 Y83.5948
N1500 G1 X80.599
N1510 G0 Z5.0
N1520 G0 X86.9323 Y101.1781
N1530 G1 F300.0 Z-0.05
N1540 G1 F500.0 Y104.8448
N1550 G1 X90.599
N1560 G1 Y101.1781
N1570 G1 X86.9323
N1580 G0 Z5.0
N1590 G0 Y106.5114
N1600 G1 F300.0 Z-0.05
N1610 G1 F500.0 Y110.1781
N1620 G1 X90.599
N1630 G1 Y106.5114
N1640 G1 X86.9323
N1650 G0 Z5.0
N1660 G0 X92.2656
N1670 G1 F300.0 Z-0.05
N1680 G1 F500.0 Y110.1781
N1690 G1 X95.9323
N1700 G1 Y106.5114
N1710 G1 X92.2656
N1720 G0 Z5.0
N1730 G0 Y104.8448
N1740 G1 F300.0 Z-0.05
N1750 G1 F500.0 X95.9323
N1760 G1 Y101.1781
N1770 G1 X92.2656
N1780 G1 Y104.8448
N1790 G0 Z5.0
N1800 G0 X104.9323 Y103.6781
N1810 G1 F300.0 Z-0.05
N1820 G1 F500.0 X106.4323
N1830 G3 X106.9323 Y104.1781 I0.0 J0.5
N1840 G1 Y112.1781
N1850 G3 X106.4323 Y112.6781 I-0.5 J0.0
N1860 G1 X104.9323
N1870 G1 Y117.6781
N1880 G1 X106.4323
N1890 G3 X106.9323 Y118.1781 I0.0 J0.5
N1900 G1 Y120.6781
N1910 G3 X106.4323 Y121.1781 I-0.5 J0.0
N1920 G1 X95.7331
N1930 G0 Z0.95
N1940 G1 X91.7331
N1950 G1 F300.0 Z-0.05
N1960 G1 F500.0 X72.7549
N1970 G0 Z0.95
N1980 G1 X68.7549
N1990 G1 F300.0 Z-0.05
N2000 G1 F500.0 X56.4323
N2010 G3 X55.9323 Y120.6781 I0.0 J-0.5
N2020 G1 Y118.1781
N2030 G3 X56.4323 Y117.6781 I0.5 J0.0
N2040 G1 X57.9323
N2050 G1 Y112.6781
N2060 G1 X56.4323
N2070 G3 X55.9323 Y112.1781 I0.0 J-0.5
N2080 G1 Y104.1781
N2090 G3 X56.4323 Y103.6781 I0.5 J0.0
N2100 G1 X57.9323
N2110 G1 Y98.6781
N2120 G1 X56.4323
N2130 G3 X55.9323 Y98.1781 I0.0 J-0.5
N2140 G1 Y95.6781
N2150 G3 X56.0787 Y95.3246 I0.5 J0.0
N2160 G1 X59.3864 Y92.0169
N2170 G1 X59.0328 Y91.6634
N2180 G3 Y90.9563 I0.3536 J-0.3536
N2190 G1 X64.9624 Y85.0267
N2200 G0 Z0.95
N2210 G1 X67.7908 Y82.1983
N2220 G1 F300.0 Z-0.05
N2230 G1 F500.0 X76.7105 Y73.2786
N2240 G3 X77.4176 I0.3536 J0.3536
N2250 G1 X77.7711 Y73.6322
N2260 G1 X81.0787 Y70.3246
N2270 G3 X81.7858 I0.3536 J0.3536
N2280 G1 X85.0935 Y73.6322
N2290 G1 X85.447 Y73.2786
N2300 G3 X86.1541 I0.3536 J0.3536
N2310 G1 X94.1543 Y81.2789
N2320 G0 Z0.95
N2330 G1 X96.9828 Y84.1073
N2340 G1 F300.0 Z-0.05
N2350 G1 F500.0 X103.8318 Y90.9563
N2360 G3 Y91.6634 I-0.3536 J0.3536
N2370 G1 X103.4782 Y92.0169
N2380 G1 X106.7858 Y95.3246
N2390 G3 X106.9323 Y95.6781 I-0.3536 J0.3536
N2400 G1 Y98.1781
N2410 G3 X106.4323 Y98.6781 I-0.5 J0.0
N2420 G1 X104.9323
N2430 G1 Y103.6781
N2440 G0 Z5.0
N2450 G0 X115.9145 Y92.6959
N2460 G1 F300.0 Z-0.05
N2470 G1 F500.0 X112.9817 Y89.7631
N2480 G0 Z0.95
N2490 G1 X110.1533 Y86.9347
N2500 G1 F300.0 Z-0.05
N2510 G1 F500.0 X95.9386 Y72.72
N2520 G0 Z0.95
N2530 G1 X93.1102 Y69.8916
N2540 G1 F300.0 Z-0.05
N2550 G1 F500.0 X87.0926 Y63.874
N2560 G3 Y63.1669 I0.3536 J-0.3536
N2570 G1 X115.5068 Y34.7527
N2580 G3 X116.2139 I0.3536 J0.3536
N2590 G1 X122.2315 Y40.7702
N2600 G0 Z0.95
N2610 G1 X125.0599 Y43.5987
N2620 G1 F300.0 Z-0.05
N2630 G1 F500.0 X139.4083 Y57.947
N2640 G0 Z0.95
N2650 G1 X142.2367 Y60.7754
N2660 G1 F300.0 Z-0.05
N2670 G1 F500.0 X148.5051 Y67.0439
N2680 G3 Y67.751 I-0.3536 J0.3536
N2690 G1 X120.0909 Y96.1652
N2700 G3 X119.3838 I-0.3536 J-0.3536
N2710 G1 X115.9145 Y92.6959
N2720 G0 Z5.0
N2730 G0 X78.1136 Y63.7516
N2740 G1 F300.0 Z-0.05
N2750 G3 F500.0 X78.0701 Y63.8012 I-0.397 J-0.304
N2760 G1 X71.7522 Y70.1191
N2770 G0 Z0.95
N2780 G1 X68.9238 Y72.9475
N2790 G1 F300.0 Z-0.05
N2800 G1 F500.0 X54.0408 Y87.8306
N2810 G0 Z0.95
N2820 G1 X51.2123 Y90.659
N2830 G1 F300.0 Z-0.05
N2840 G1 F500.0 X45.7789 Y96.0924
N2850 G3 X45.0718 I-0.3536 J-0.3536
N2860 G1 X16.6576 Y67.6782
N2870 G3 Y66.9711 I0.3536 J-0.3536
N2880 G1 X21.8892 Y61.7395
N2890 G0 Z0.95
N2900 G1 X24.7177 Y58.911
N2910 G1 F300.0 Z-0.05
N2920 G1 F500.0 X42.0749 Y41.5538
N2930 G0 Z0.95
N2940 G1 X44.9033 Y38.7254
N2950 G1 F300.0 Z-0.05
N2960 G1 F500.0 X48.9488 Y34.6799
N2970 G3 X49.6559 I0.3536 J0.3536
N2980 G1 X78.0701 Y63.0941
N2990 G3 X78.1136 Y63.7516 I-0.3536 J0.3536
N3000 G0 Z5.0
N3010 G0 X81.2422 Y56.1406
N3020 G1 F300.0 Z-0.05
N3030 G3 F500.0 X81.0787 Y56.0317 I0.1901 J-0.4625
N3040 G1 X77.7711 Y52.7241
N3050 G1 X77.4176 Y53.0776
N3060 G3 X76.7105 I-0.3536 J-0.3536
N3070 G1 X69.8793 Y46.2464
N3080 G0 Z0.95
N3090 G1 X67.0509 Y43.418
N3100 G1 F300.0 Z-0.05
N3110 G1 F500.0 X59.0328 Y35.3999
N3120 G3 Y34.6928 I0.3536 J-0.3536
N3130 G1 X59.3864 Y34.3393
N3140 G1 X56.0787 Y31.0317
N3150 G3 X55.9323 Y30.6781 I0.3536 J-0.3536
N3160 G1 Y28.1781
N3170 G3 X56.4323 Y27.6781 I0.5 J0.0
N3180 G1 X57.9323
N3190 G1 Y22.6781
N3200 G1 X56.4323
N3210 G3 X55.9323 Y22.1781 I0.0 J-0.5
N3220 G1 Y14.1781
N3230 G3 X56.4323 Y13.6781 I0.5 J0.0
N3240 G1 X57.9323
N3250 G1 Y8.6781
N3260 G1 X56.4323
N3270 G3 X55.9323 Y8.1781 I0.0 J-0.5
N3280 G1 Y5.6781
N3290 G3 X56.4323 Y5.1781 I0.5 J0.0
N3300 G1 X67.2176
N3310 G0 Z0.95
N3320 G1 X71.2176
N3330 G1 F300.0 Z-0.05
N3340 G1 F500.0 X95.4488
N3350 G0 Z0.95
N3360 G1 X99.4488
N3370 G1 F300.0 Z-0.05
N3380 G1 F500.0 X106.4323
N3390 G3 X106.9323 Y5.6781 I0.0 J0.5
N3400 G1 Y8.1781
N3410 G3 X106.4323 Y8.6781 I-0.5 J0.0
N3420 G1 X104.9323
N3430 G1 Y13.6781
N3440 G1 X106.4323
N3450 G3 X106.9323 Y14.1781 I0.0 J0.5
N3460 G1 Y22.1781
N3470 G3 X106.4323 Y22.6781 I-0.5 J0.0
N3480 G1 X104.9323
N3490 G1 Y27.6781
N3500 G1 X106.4323
N3510 G3 X106.9323 Y28.1781 I0.0 J0.5
N3520 G1 Y30.6781
N3530 G3 X106.7858 Y31.0317 I-0.5 J0.0
N3540 G1 X103.4782 Y34.3393
N3550 G1 X103.8318 Y34.6928
N3560 G3 Y35.3999 I-0.3536 J0.3536
N3570 G1 X97.6346 Y41.5972
N3580 G0 Z0.95
N3590 G1 X94.8061 Y44.4256
N3600 G1 F300.0 Z-0.05
N3610 G1 F500.0 X86.1541 Y53.0776
N3620 G3 X85.447 I-0.3536 J-0.3536
N3630 G1 X85.0935 Y52.7241
N3640 G1 X81.7858 Y56.0317
N3650 G3 X81.2422 Y56.1406 I-0.3536 J-0.3536
N3660 G0 Z5.0
N3670 G0 X47.8176 Y28.4968
N3680 G1 F300.0 Z-0.05
N3690 G3 F500.0 X47.4323 Y28.6781 I-0.3853 J-0.3187
N3700 G1 X45.9323
N3710 G1 Y30.6781
N3720 G3 X45.4323 Y31.1781 I-0.5 J0.0
N3730 G1 X39.4038
N3740 G0 Z0.95
N3750 G1 X35.4038
N3760 G1 F300.0 Z-0.05
N3770 G1 F500.0 X20.4225
N3780 G0 Z0.95
N3790 G1 X16.4225
N3800 G1 F300.0 Z-0.05
N3810 G1 F500.0 X7.7656
N3820 G3 X7.2656 Y30.6781 I0.0 J-0.5
N3830 G1 Y28.6781
N3840 G1 X5.7656
N3850 G3 X5.2656 Y28.1781 I0.0 J-0.5
N3860 G1 Y22.1781
N3870 G3 X5.7656 Y21.6781 I0.5 J0.0
N3880 G1 X7.2656
N3890 G1 Y14.6781
N3900 G1 X5.7656
N3910 G3 X5.2656 Y14.1781 I0.0 J-0.5
N3920 G1 Y8.1781
N3930 G3 X5.7656 Y7.6781 I0.5 J0.0
N3940 G1 X7.2656
N3950 G1 Y5.6781
N3960 G3 X7.7656 Y5.1781 I0.5 J0.0
N3970 G1 X15.2195
N3980 G0 Z0.95
N3990 G1 X19.2195
N4000 G1 F300.0 Z-0.05
N4010 G1 F500.0 X35.1365
N4020 G0 Z0.95
N4030 G1 X39.1365
N4040 G1 F300.0 Z-0.05
N4050 G1 F500.0 X45.4323
N4060 G3 X45.9323 Y5.6781 I0.0 J0.5
N4070 G1 Y7.6781
N4080 G1 X47.4323
N4090 G3 X47.9323 Y8.1781 I0.0 J0.5
N4100 G1 Y14.1781
N4110 G3 X47.4323 Y14.6781 I-0.5 J0.0
N4120 G1 X45.9323
N4130 G1 Y21.6781
N4140 G1 X47.4323
N4150 G3 X47.9323 Y22.1781 I0.0 J0.5
N4160 G1 Y28.1781
N4170 G3 X47.8176 Y28.4968 I-0.5 J0.0
N4180 G0 Z5.0
N4190 G0 X115.9323 Y28.1804
N4200 G1 F300.0 Z-0.05
N4210 G3 F500.0 Y28.1781 I0.5 J-0.0023
N4220 G1 Y22.1781
N4230 G3 X116.4323 Y21.6781 I0.5 J0.0
N4240 G1 X117.9323
N4250 G1 Y14.6781
N4260 G1 X116.4323
N4270 G3 X115.9323 Y14.1781 I0.0 J-0.5
N4280 G1 Y8.1781
N4290 G3 X116.4323 Y7.6781 I0.5 J0.0
N4300 G1 X117.9323
N4310 G1 Y5.6781
N4320 G3 X118.4323 Y5.1781 I0.5 J0.0
N4330 G1 X127.7708
N4340 G0 Z0.95
N4350 G1 X131.7708
N4360 G1 F300.0 Z-0.05
N4370 G1 F500.0 X145.6828
N4380 G0 Z0.95
N4390 G1 X149.6828
N4400 G1 F300.0 Z-0.05
N4410 G1 F500.0 X156.099
N4420 G3 X156.599 Y5.6781 I0.0 J0.5
N4430 G1 Y7.6781
N4440 G1 X158.099
N4450 G3 X158.599 Y8.1781 I0.0 J0.5
N4460 G1 Y14.1781
N4470 G3 X158.099 Y14.6781 I-0.5 J0.0
N4480 G1 X156.599
N4490 G1 Y21.6781
N4500 G1 X158.099
N4510 G3 X158.599 Y22.1781 I0.0 J0.5
N4520 G1 Y28.1781
N4530 G3 X158.099 Y28.6781 I-0.5 J0.0
N4540 G1 X156.599
N4550 G1 Y30.6781
N4560 G3 X156.099 Y31.1781 I-0.5 J0.0
N4570 G1 X147.0094
N4580 G0 Z0.95
N4590 G1 X143.0094
N4600 G1 F300.0 Z-0.05
N4610 G1 F500.0 X129.4984
N4620 G0 Z0.95
N4630 G1 X125.4984
N4640 G1 F300.0 Z-0.05
N4650 G1 F500.0 X118.4323
N4660 G3 X117.9323 Y30.6781 I0.0 J-0.5
N4670 G1 Y28.6781
N4680 G1 X116.4323
N4690 G3 X115.9323 Y28.1804 I0.0 J-0.5
N4700 G0 Z20.0
N4710 M5
N4720 M30
