( Made using CamBam )
( maison_avent_70 11/7/2020 9:00:31 PM )
( T1 : 1.0 )
N10 G21 G90 G64 G40
N30 G G53 Z0
( T1 : 1.0 )
N40 M0
N50 M6 T1
N60 M0
( porte )
N80 G17
N90 M3 S29000
N100 G0 X80.2648 Y4.9999
N70 G0 Z20.0
N110 G1 F300.0 Z1.5
N120 G1 F500.0 Y34.1665
N130 G1 X94.2648
N140 G1 Y4.9999
( empl_toit )
N150 S29000
N160 G0 Z5.0
N170 G0 X26.0141 Y93.8385
N180 G1 F300.0 Z1.0
N190 G1 F500.0 X45.3889 Y113.2132
N200 G1 X45.5303 Y113.0718
N210 G1 X26.1556 Y93.6971
N220 G1 X26.0141 Y93.8385
N230 G1 F300.0 X25.7313 Y93.5557
N240 G1 F500.0 X25.4485 Y93.8385
N250 G1 X45.3889 Y113.7789
N260 G1 X46.096 Y113.0718
N270 G1 X26.1556 Y93.1314
N280 G1 X25.7313 Y93.5557
N290 G1 F300.0 X25.4485 Y93.2728
N300 G1 F500.0 X24.8828 Y93.8385
N310 G1 X45.3889 Y114.3446
N320 G1 X46.6617 Y113.0718
N330 G1 X26.1556 Y92.5657
N340 G1 X25.4485 Y93.2728
N350 G0 Z5.0
N360 G0 X65.6357 Y54.217
N370 G1 F300.0 Z1.0
N380 G1 F500.0 X85.0104 Y73.5917
N390 G1 X85.1518 Y73.4503
N400 G1 X65.7771 Y54.0755
N410 G1 X65.6357 Y54.217
N420 G1 F300.0 X65.3528 Y53.9341
N430 G1 F500.0 X65.07 Y54.217
N440 G1 X85.0104 Y74.1574
N450 G1 X85.7175 Y73.4503
N460 G1 X65.7771 Y53.5099
N470 G1 X65.3528 Y53.9341
N480 G1 F300.0 X65.07 Y53.6513
N490 G1 F500.0 X64.5043 Y54.217
N500 G1 X85.0104 Y74.7231
N510 G1 X86.2832 Y73.4503
N520 G1 X65.7771 Y52.9442
N530 G1 X65.07 Y53.6513
N540 G0 Z5.0
N550 G0 X119.4492 Y73.65
N560 G1 F300.0 Z1.0
N570 G1 F500.0 X119.5906 Y73.7915
N580 G1 X138.9653 Y54.4167
N590 G1 X138.8239 Y54.2753
N600 G1 X119.4492 Y73.65
N610 G1 F300.0 X119.1663 Y73.3672
N620 G1 F500.0 X118.8835 Y73.65
N630 G1 X119.5906 Y74.3571
N640 G1 X139.531 Y54.4167
N650 G1 X138.8239 Y53.7096
N660 G1 X119.1663 Y73.3672
N670 G1 F300.0 X118.8835 Y73.0844
N680 G1 F500.0 X118.3178 Y73.65
N690 G1 X119.5906 Y74.9228
N700 G1 X140.0967 Y54.4167
N710 G1 X138.8239 Y53.1439
N720 G1 X118.8835 Y73.0844
N730 G0 Z5.0
N740 G0 X159.0707 Y113.2716
N750 G1 F300.0 Z1.0
N760 G1 F500.0 X159.2121 Y113.413
N770 G1 X178.5869 Y94.0383
N780 G1 X178.4454 Y93.8969
N790 G1 X159.0707 Y113.2716
N800 G1 F300.0 X158.7879 Y113.5544
N810 G1 F500.0 X159.2121 Y113.9787
N820 G1 X179.1526 Y94.0383
N830 G1 X178.4454 Y93.3312
N840 G1 X158.505 Y113.2716
N850 G1 X158.7879 Y113.5544
N860 G1 F300.0 X158.505 Y113.8373
N870 G1 F500.0 X159.2121 Y114.5444
N880 G1 X179.7182 Y94.0383
N890 G1 X178.4454 Y92.7655
N900 G1 X157.9393 Y113.2716
N910 G1 X158.505 Y113.8373
( Fenetre )
N920 S1000
N930 G0 Z5.0
N940 G0 X110.0001 Y19.4999
N950 G0 Z3.95
N960 G1 F300.0 Z-0.05
N970 G1 F500.0 Y24.9399
N980 G1 X115.4401
N990 G1 Y19.4999
N1000 G1 X110.0001
N1010 G0 Z5.0
N1020 G0 X117.5601
N1030 G0 Z3.95
N1040 G1 F300.0 Z-0.05
N1050 G1 F500.0 Y24.9399
N1060 G1 X123.0001
N1070 G1 Y19.4999
N1080 G1 X117.5601
N1090 G0 Z5.0
N1100 G0 Y27.0599
N1110 G0 Z3.95
N1120 G1 F300.0 Z-0.05
N1130 G1 F500.0 Y32.4999
N1140 G1 X123.0001
N1150 G1 Y27.0599
N1160 G1 X117.5601
N1170 G0 Z5.0
N1180 G0 X115.4401
N1190 G0 Z3.95
N1200 G1 F300.0 Z-0.05
N1210 G1 F500.0 X110.0001
N1220 G1 Y32.4999
N1230 G1 X115.4401
N1240 G1 Y27.0599
N1250 G0 Z5.0
N1260 G0 X109.0001 Y49.2499
N1270 G0 Z3.95
N1280 G1 F300.0 Z-0.05
N1290 G1 F500.0 X103.5601
N1300 G1 Y54.6899
N1310 G1 X109.0001
N1320 G1 Y49.2499
N1330 G0 Z5.0
N1340 G0 X101.4401
N1350 G0 Z3.95
N1360 G1 F300.0 Z-0.05
N1370 G1 F500.0 X96.0001
N1380 G1 Y54.6899
N1390 G1 X101.4401
N1400 G1 Y49.2499
N1410 G0 Z5.0
N1420 G0 Y56.8099
N1430 G0 Z3.95
N1440 G1 F300.0 Z-0.05
N1450 G1 F500.0 X96.0001
N1460 G1 Y62.2499
N1470 G1 X101.4401
N1480 G1 Y56.8099
N1490 G0 Z5.0
N1500 G0 X103.5601
N1510 G0 Z3.95
N1520 G1 F300.0 Z-0.05
N1530 G1 F500.0 Y62.2499
N1540 G1 X109.0001
N1550 G1 Y56.8099
N1560 G1 X103.5601
N1570 G0 Z5.0
N1580 G0 Y98.7499
N1590 G0 Z3.95
N1600 G1 F300.0 Z-0.05
N1610 G1 F500.0 Y104.1899
N1620 G1 X109.0001
N1630 G1 Y98.7499
N1640 G1 X103.5601
N1650 G0 Z5.0
N1660 G0 X101.4401
N1670 G0 Z3.95
N1680 G1 F300.0 Z-0.05
N1690 G1 F500.0 X96.0001
N1700 G1 Y104.1899
N1710 G1 X101.4401
N1720 G1 Y98.7499
N1730 G0 Z5.0
N1740 G0 Y106.3099
N1750 G0 Z3.95
N1760 G1 F300.0 Z-0.05
N1770 G1 F500.0 X96.0001
N1780 G1 Y111.7499
N1790 G1 X101.4401
N1800 G1 Y106.3099
N1810 G0 Z5.0
N1820 G0 X103.5601
N1830 G0 Z3.95
N1840 G1 F300.0 Z-0.05
N1850 G1 F500.0 Y111.7499
N1860 G1 X109.0001
N1870 G1 Y106.3099
N1880 G1 X103.5601
N1890 G0 Z5.0
N1900 G0 X110.0001 Y128.4999
N1910 G0 Z3.95
N1920 G1 F300.0 Z-0.05
N1930 G1 F500.0 Y133.9399
N1940 G1 X115.4401
N1950 G1 Y128.4999
N1960 G1 X110.0001
N1970 G0 Z5.0
N1980 G0 Y136.0599
N1990 G0 Z3.95
N2000 G1 F300.0 Z-0.05
N2010 G1 F500.0 Y141.4999
N2020 G1 X115.4401
N2030 G1 Y136.0599
N2040 G1 X110.0001
N2050 G0 Z5.0
N2060 G0 X117.5601
N2070 G0 Z3.95
N2080 G1 F300.0 Z-0.05
N2090 G1 F500.0 Y141.4999
N2100 G1 X123.0001
N2110 G1 Y136.0599
N2120 G1 X117.5601
N2130 G0 Z5.0
N2140 G0 Y133.9399
N2150 G0 Z3.95
N2160 G1 F300.0 Z-0.05
N2170 G1 F500.0 X123.0001
N2180 G1 Y128.4999
N2190 G1 X117.5601
N2200 G1 Y133.9399
( finition_contour )
N2210 S29000
N2220 G0 Z5.0
N2230 G0 X7.9667 Y4.9999
N2240 G1 F300.0 Z-0.05
N2250 G3 F500.0 X8.4667 Y4.4999 I0.5 J0.0
N2260 G1 X20.1501
N2270 G0 Z0.95
N2280 G1 X24.1501
N2290 G1 F300.0 Z-0.05
N2300 G1 F500.0 X49.0
N2310 G0 Z0.95
N2320 G1 X53.0
N2330 G1 F300.0 Z-0.05
N2340 G1 F500.0 X62.2001
N2350 G3 X62.7001 Y4.9999 I0.0 J0.5
N2360 G1 Y12.9999
N2370 G1 X62.5536 Y13.1463
N2380 G1 X62.7001 Y12.9999
N2390 G1 X64.5001
N2400 G3 X65.0001 Y13.4999 I0.0 J0.5
N2410 G1 Y19.4999
N2420 G3 X64.5001 Y19.9999 I-0.5 J0.0
N2430 G1 X62.7001
N2440 G1 X62.5536 Y19.8534
N2450 G1 X62.7001 Y19.9999
N2460 G1 Y24.9999
N2470 G1 X62.5536 Y25.1463
N2480 G1 X62.7001 Y24.9999
N2490 G1 X64.5001
N2500 G3 X65.0001 Y25.4999 I0.0 J0.5
N2510 G1 Y31.4999
N2520 G3 X64.5001 Y31.9999 I-0.5 J0.0
N2530 G1 X62.7001
N2540 G1 X62.5536 Y31.8534
N2550 G1 X62.7001 Y31.9999
N2560 G1 Y39.9999
N2570 G3 X62.2001 Y40.4999 I-0.5 J0.0
N2580 G1 X51.0
N2590 G0 Z0.95
N2600 G1 X47.0
N2610 G1 F300.0 Z-0.05
N2620 G1 F500.0 X23.0
N2630 G0 Z0.95
N2640 G1 X19.0
N2650 G1 F300.0 Z-0.05
N2660 G1 F500.0 X8.4667
N2670 G3 X7.9667 Y39.9999 I0.0 J-0.5
N2680 G1 Y31.9999
N2690 G1 X8.1132 Y31.8534
N2700 G1 X7.9667 Y31.9999
N2710 G1 X6.1667
N2720 G3 X5.6667 Y31.4999 I0.0 J-0.5
N2730 G1 Y25.4999
N2740 G3 X6.1667 Y24.9999 I0.5 J0.0
N2750 G1 X7.9667
N2760 G1 X8.1132 Y25.1463
N2770 G1 X7.9667 Y24.9999
N2780 G1 Y19.9999
N2790 G1 X8.1132 Y19.8534
N2800 G1 X7.9667 Y19.9999
N2810 G1 X6.1667
N2820 G3 X5.6667 Y19.4999 I0.0 J-0.5
N2830 G1 Y13.4999
N2840 G3 X6.1667 Y12.9999 I0.5 J0.0
N2850 G1 X7.9667
N2860 G1 X8.1132 Y13.1463
N2870 G1 X7.9667 Y12.9999
N2880 G1 Y4.9999
N2890 G0 Z5.0
N2900 G0 X67.0001
N2910 G1 F300.0 Z-0.05
N2920 G3 F500.0 X67.5001 Y4.4999 I0.5 J0.0
N2930 G1 X83.0
N2940 G0 Z0.95
N2950 G1 X87.0
N2960 G1 F300.0 Z-0.05
N2970 G1 F500.0 X125.0
N2980 G0 Z0.95
N2990 G1 X129.0
N3000 G1 F300.0 Z-0.05
N3010 G1 F500.0 X137.5001
N3020 G3 X138.0001 Y4.9999 I0.0 J0.5
N3030 G1 Y13.4999
N3040 G3 X137.5001 Y13.9999 I-0.5 J0.0
N3050 G1 X135.7001
N3060 G1 X135.5536 Y13.8534
N3070 G1 X135.7001 Y13.9999
N3080 G1 Y18.9999
N3090 G1 X135.5536 Y19.1463
N3100 G1 X135.7001 Y18.9999
N3110 G1 X137.5001
N3120 G3 X138.0001 Y19.4999 I0.0 J0.5
N3130 G1 Y25.4999
N3140 G3 X137.5001 Y25.9999 I-0.5 J0.0
N3150 G1 X135.7001
N3160 G1 X135.5536 Y25.8534
N3170 G1 X135.7001 Y25.9999
N3180 G1 Y30.9999
N3190 G1 X135.5536 Y31.1463
N3200 G1 X135.7001 Y30.9999
N3210 G1 X137.5001
N3220 G3 X138.0001 Y31.4999 I0.0 J0.5
N3230 G1 Y39.9999
N3240 G3 X137.8536 Y40.3534 I-0.5 J0.0
N3250 G1 X129.546 Y48.661
N3260 G1 X129.3389
N3270 G1 X129.546
N3280 G1 X129.8995 Y49.0146
N3290 G3 Y49.7217 I-0.3536 J0.3536
N3300 G1 X122.7248 Y56.8964
N3310 G0 Z0.95
N3320 G1 X119.8964 Y59.7248
N3330 G1 F300.0 Z-0.05
N3340 G1 F500.0 X112.2219 Y67.3993
N3350 G3 X111.5148 I-0.3536 J-0.3536
N3360 G1 X111.1612 Y67.0458
N3370 G1 Y66.8387
N3380 G1 Y67.0458
N3390 G1 X102.8536 Y75.3534
N3400 G3 X102.1465 I-0.3536 J-0.3536
N3410 G1 X93.8389 Y67.0458
N3420 G1 Y66.8387
N3430 G1 Y67.0458
N3440 G1 X93.4853 Y67.3993
N3450 G3 X92.7782 I-0.3536 J-0.3536
N3460 G1 X85.6037 Y60.2248
N3470 G0 Z0.95
N3480 G1 X82.7752 Y57.3963
N3490 G1 F300.0 Z-0.05
N3500 G1 F500.0 X75.1006 Y49.7217
N3510 G3 Y49.0146 I0.3536 J-0.3536
N3520 G1 X75.4541 Y48.661
N3530 G1 X75.6612
N3540 G1 X75.4541
N3550 G1 X67.1465 Y40.3534
N3560 G3 X67.0001 Y39.9999 I0.3536 J-0.3536
N3570 G1 Y31.4999
N3580 G3 X67.5001 Y30.9999 I0.5 J0.0
N3590 G1 X69.3001
N3600 G1 X69.4465 Y31.1463
N3610 G1 X69.3001 Y30.9999
N3620 G1 Y25.9999
N3630 G1 X69.4465 Y25.8534
N3640 G1 X69.3001 Y25.9999
N3650 G1 X67.5001
N3660 G3 X67.0001 Y25.4999 I0.0 J-0.5
N3670 G1 Y19.4999
N3680 G3 X67.5001 Y18.9999 I0.5 J0.0
N3690 G1 X69.3001
N3700 G1 X69.4465 Y19.1463
N3710 G1 X69.3001 Y18.9999
N3720 G1 Y13.9999
N3730 G1 X69.4465 Y13.8534
N3740 G1 X69.3001 Y13.9999
N3750 G1 X67.5001
N3760 G3 X67.0001 Y13.4999 I0.0 J-0.5
N3770 G1 Y4.9999
N3780 G0 Z5.0
N3790 G0 X58.4839 Y41.444
N3800 G1 F300.0 Z-0.05
N3810 G3 F500.0 X58.7237 Y41.5774 I-0.1138 J0.4869
N3820 G1 X97.65 Y80.5037
N3830 G3 Y81.2108 I-0.3536 J0.3536
N3840 G1 X92.3446 Y86.5162
N3850 G0 Z0.95
N3860 G1 X89.5162 Y89.3446
N3870 G1 F300.0 Z-0.05
N3880 G1 F500.0 X59.8446 Y119.0162
N3890 G0 Z0.95
N3900 G1 X57.0162 Y121.8446
N3910 G1 F300.0 Z-0.05
N3920 G1 F500.0 X53.1494 Y125.7114
N3930 G3 X52.4423 I-0.3536 J-0.3536
N3940 G1 X13.516 Y86.7851
N3950 G3 Y86.078 I0.3536 J-0.3536
N3960 G1 X23.3828 Y76.2112
N3970 G0 Z0.95
N3980 G1 X26.2112 Y73.3828
N3990 G1 F300.0 Z-0.05
N4000 G1 F500.0 X46.3828 Y53.2112
N4010 G0 Z0.95
N4020 G1 X49.2112 Y50.3828
N4030 G1 F300.0 Z-0.05
N4040 G1 F500.0 X58.0166 Y41.5774
N4050 G3 X58.4839 Y41.444 I0.3536 J0.3536
N4060 G0 Z5.0
N4070 G0 X102.1487 Y85.6442
N4080 G1 F300.0 Z-0.05
N4090 G3 F500.0 X102.8536 Y85.6463 I0.3514 J0.3557
N4100 G1 X111.1612 Y93.9539
N4110 G1 Y94.161
N4120 G1 Y93.9539
N4130 G1 X111.5148 Y93.6004
N4140 G3 X112.2219 I0.3536 J0.3536
N4150 G1 X118.8965 Y100.275
N4160 G0 Z0.95
N4170 G1 X121.725 Y103.1035
N4180 G1 F300.0 Z-0.05
N4190 G1 F500.0 X129.8995 Y111.278
N4200 G3 Y111.9851 I-0.3536 J0.3536
N4210 G1 X129.546 Y112.3387
N4220 G1 X129.3389
N4230 G1 X129.546
N4240 G1 X137.8536 Y120.6463
N4250 G3 X138.0001 Y120.9999 I-0.3536 J0.3536
N4260 G1 Y129.4999
N4270 G3 X137.5001 Y129.9999 I-0.5 J0.0
N4280 G1 X135.7001
N4290 G1 X135.5536 Y129.8534
N4300 G1 X135.7001 Y129.9999
N4310 G1 Y134.9999
N4320 G1 X135.5536 Y135.1463
N4330 G1 X135.7001 Y134.9999
N4340 G1 X137.5001
N4350 G3 X138.0001 Y135.4999 I0.0 J0.5
N4360 G1 Y141.4999
N4370 G3 X137.5001 Y141.9999 I-0.5 J0.0
N4380 G1 X135.7001
N4390 G1 X135.5536 Y141.8534
N4400 G1 X135.7001 Y141.9999
N4410 G1 Y146.9999
N4420 G1 X135.5536 Y147.1463
N4430 G1 X135.7001 Y146.9999
N4440 G1 X137.5001
N4450 G3 X138.0001 Y147.4999 I0.0 J0.5
N4460 G1 Y155.9999
N4470 G3 X137.5001 Y156.4999 I-0.5 J0.0
N4480 G1 X126.0
N4490 G0 Z0.95
N4500 G1 X122.0
N4510 G1 F300.0 Z-0.05
N4520 G1 F500.0 X83.0
N4530 G0 Z0.95
N4540 G1 X79.0
N4550 G1 F300.0 Z-0.05
N4560 G1 F500.0 X67.5001
N4570 G3 X67.0001 Y155.9999 I0.0 J-0.5
N4580 G1 Y147.4999
N4590 G3 X67.5001 Y146.9999 I0.5 J0.0
N4600 G1 X69.3001
N4610 G1 X69.4465 Y147.1463
N4620 G1 X69.3001 Y146.9999
N4630 G1 Y141.9999
N4640 G1 X69.4465 Y141.8534
N4650 G1 X69.3001 Y141.9999
N4660 G1 X67.5001
N4670 G3 X67.0001 Y141.4999 I0.0 J-0.5
N4680 G1 Y135.4999
N4690 G3 X67.5001 Y134.9999 I0.5 J0.0
N4700 G1 X69.3001
N4710 G1 X69.4465 Y135.1463
N4720 G1 X69.3001 Y134.9999
N4730 G1 Y129.9999
N4740 G1 X69.4465 Y129.8534
N4750 G1 X69.3001 Y129.9999
N4760 G1 X67.5001
N4770 G3 X67.0001 Y129.4999 I0.0 J-0.5
N4780 G1 Y120.9999
N4790 G3 X67.1465 Y120.6463 I0.5 J0.0
N4800 G1 X75.4541 Y112.3387
N4810 G1 X75.6612
N4820 G1 X75.4541
N4830 G1 X75.1006 Y111.9851
N4840 G3 Y111.278 I0.3536 J-0.3536
N4850 G1 X83.2751 Y103.1035
N4860 G0 Z0.95
N4870 G1 X86.1035 Y100.2751
N4880 G1 F300.0 Z-0.05
N4890 G1 F500.0 X92.7782 Y93.6004
N4900 G3 X93.4853 I0.3536 J0.3536
N4910 G1 X93.8389 Y93.9539
N4920 G1 Y94.161
N4930 G1 Y93.9539
N4940 G1 X102.1465 Y85.6463
N4950 G3 X102.1487 Y85.6442 I0.3536 J0.3536
N4960 G0 Z5.0
N4970 G0 X106.931 Y81.3894
N4980 G1 F300.0 Z-0.05
N4990 G3 F500.0 X106.951 Y80.7035 I0.3736 J-0.3323
N5000 G1 X145.8773 Y41.7771
N5010 G3 X146.5845 I0.3536 J0.3536
N5020 G1 X152.9894 Y48.1821
N5030 G0 Z0.95
N5040 G1 X155.8179 Y51.0106
N5050 G1 F300.0 Z-0.05
N5060 G1 F500.0 X181.4894 Y76.6821
N5070 G0 Z0.95
N5080 G1 X184.3179 Y79.5106
N5090 G1 F300.0 Z-0.05
N5100 G1 F500.0 X191.085 Y86.2777
N5110 G3 Y86.9848 I-0.3536 J0.3536
N5120 G1 X152.1587 Y125.9112
N5130 G3 X151.4516 I-0.3536 J-0.3536
N5140 G1 X146.1844 Y120.644
N5150 G0 Z0.95
N5160 G1 X143.356 Y117.8156
N5170 G1 F300.0 Z-0.05
N5180 G1 F500.0 X116.1844 Y90.644
N5190 G0 Z0.95
N5200 G1 X113.356 Y87.8156
N5210 G1 F300.0 Z-0.05
N5220 G1 F500.0 X106.951 Y81.4106
N5230 G3 X106.931 Y81.3894 I0.3536 J-0.3536
N5240 G0 Z5.0
N5250 G0 X142.4726 Y40.3777
N5260 G1 F300.0 Z-0.05
N5270 G3 F500.0 X142.3001 Y39.9999 I0.3275 J-0.3779
N5280 G1 Y31.9999
N5290 G1 X142.4465 Y31.8534
N5300 G1 X142.3001 Y31.9999
N5310 G1 X140.5001
N5320 G3 X140.0001 Y31.4999 I0.0 J-0.5
N5330 G1 Y25.4999
N5340 G3 X140.5001 Y24.9999 I0.5 J0.0
N5350 G1 X142.3001
N5360 G1 X142.4465 Y25.1463
N5370 G1 X142.3001 Y24.9999
N5380 G1 Y19.9999
N5390 G1 X142.4465 Y19.8534
N5400 G1 X142.3001 Y19.9999
N5410 G1 X140.5001
N5420 G3 X140.0001 Y19.4999 I0.0 J-0.5
N5430 G1 Y13.4999
N5440 G3 X140.5001 Y12.9999 I0.5 J0.0
N5450 G1 X142.3001
N5460 G1 X142.4465 Y13.1463
N5470 G1 X142.3001 Y12.9999
N5480 G1 Y4.9999
N5490 G3 X142.8001 Y4.4999 I0.5 J0.0
N5500 G1 X151.0
N5510 G0 Z0.95
N5520 G1 X155.0
N5530 G1 F300.0 Z-0.05
N5540 G1 F500.0 X186.0
N5550 G0 Z0.95
N5560 G1 X190.0
N5570 G1 F300.0 Z-0.05
N5580 G1 F500.0 X196.5334
N5590 G3 X197.0334 Y4.9999 I0.0 J0.5
N5600 G1 Y12.9999
N5610 G1 X196.8869 Y13.1463
N5620 G1 X197.0334 Y12.9999
N5630 G1 X198.8334
N5640 G3 X199.3334 Y13.4999 I0.0 J0.5
N5650 G1 Y19.4999
N5660 G3 X198.8334 Y19.9999 I-0.5 J0.0
N5670 G1 X197.0334
N5680 G1 X196.8869 Y19.8534
N5690 G1 X197.0334 Y19.9999
N5700 G1 Y24.9999
N5710 G1 X196.8869 Y25.1463
N5720 G1 X197.0334 Y24.9999
N5730 G1 X198.8334
N5740 G3 X199.3334 Y25.4999 I0.0 J0.5
N5750 G1 Y31.4999
N5760 G3 X198.8334 Y31.9999 I-0.5 J0.0
N5770 G1 X197.0334
N5780 G1 X196.8869 Y31.8534
N5790 G1 X197.0334 Y31.9999
N5800 G1 Y39.9999
N5810 G3 X196.5334 Y40.4999 I-0.5 J0.0
N5820 G1 X191.0
N5830 G0 Z0.95
N5840 G1 X187.0
N5850 G1 F300.0 Z-0.05
N5860 G1 F500.0 X157.0
N5870 G0 Z0.95
N5880 G1 X153.0
N5890 G1 F300.0 Z-0.05
N5900 G1 F500.0 X142.8001
N5910 G3 X142.4726 Y40.3777 I0.0 J-0.5
N5920 G0 Z5.0
N5930 G0 G53 Z0
N5935 G0 G53 X0
N5940 M5
N5950 M30

