( Made using CamBam )
( maison_avent_60 11/7/2020 8:49:41 PM )
( T1 : 1.0 )
N10 G21 G90 G64 G40
N30 G G53 Z0
( T1 : 1.0 )
N40 M0
N50 M6 T1
N60 M0
( porte )
N80 G17
N90 M3 S29000
N100 G0 X70.9425 Y4.9991
N105 G0 Z20.0
N110 G1 F300.0 Z1.5
N120 G1 F500.0 Y29.9991
N130 G1 X82.9425
N140 G1 Y4.9991
( empl_toit )
N150 S29000
N160 G0 Z5.0
N170 G0 X23.9079 Y82.4452
N180 G1 F300.0 Z1.0
N190 G1 F500.0 X43.2826 Y101.8199
N200 G1 X43.4241 Y101.6785
N210 G1 X24.0493 Y82.3037
N220 G1 X23.9079 Y82.4452
N230 G1 F300.0 X23.6251 Y82.728
N240 G1 F500.0 X43.2826 Y102.3856
N250 G1 X43.9898 Y101.6785
N260 G1 X24.0493 Y81.7381
N270 G1 X23.3422 Y82.4452
N280 G1 X23.6251 Y82.728
N290 G1 F300.0 X23.3422 Y83.0108
N300 G1 F500.0 X43.2826 Y102.9513
N310 G1 X44.5554 Y101.6785
N320 G1 X24.0493 Y81.1724
N330 G1 X22.7765 Y82.4452
N340 G1 X23.3422 Y83.0108
N350 G0 Z5.0
N360 G0 X57.6369 Y48.7162
N370 G1 F300.0 Z1.0
N380 G1 F500.0 X77.0116 Y68.0909
N390 G1 X77.1531 Y67.9495
N400 G1 X57.7783 Y48.5747
N410 G1 X57.6369 Y48.7162
N420 G1 F300.0 X57.3541 Y48.999
N430 G1 F500.0 X77.0116 Y68.6566
N440 G1 X77.7187 Y67.9495
N450 G1 X57.7783 Y48.0091
N460 G1 X57.0712 Y48.7162
N470 G1 X57.3541 Y48.999
N480 G1 F300.0 X57.0712 Y49.2819
N490 G1 F500.0 X77.0116 Y69.2223
N500 G1 X78.2844 Y67.9495
N510 G1 X57.7783 Y47.4434
N520 G1 X56.5055 Y48.7162
N530 G1 X57.0712 Y49.2819
N540 G0 Z5.0
N550 G0 X103.3429 Y67.0418
N560 G1 F300.0 Z1.0
N570 G1 F500.0 X103.4844 Y67.1832
N580 G1 X122.8591 Y47.8085
N590 G1 X122.7177 Y47.6671
N600 G1 X103.3429 Y67.0418
N610 G1 F300.0 X103.0601 Y67.3246
N620 G1 F500.0 X103.4844 Y67.7489
N630 G1 X123.4248 Y47.8085
N640 G1 X122.7177 Y47.1014
N650 G1 X102.7773 Y67.0418
N660 G1 X103.0601 Y67.3246
N670 G1 F300.0 X102.7773 Y67.6075
N680 G1 F500.0 X103.4844 Y68.3146
N690 G1 X123.9905 Y47.8085
N700 G1 X122.7177 Y46.5357
N710 G1 X102.2116 Y67.0418
N720 G1 X102.7773 Y67.6075
N730 G0 Z5.0
N740 G0 X137.0719 Y100.7708
N750 G1 F300.0 Z1.0
N760 G1 F500.0 X137.2134 Y100.9122
N770 G1 X156.5881 Y81.5375
N780 G1 X156.4467 Y81.3961
N790 G1 X137.0719 Y100.7708
N800 G1 F300.0 X136.7891 Y100.4879
N810 G1 F500.0 X136.5063 Y100.7708
N820 G1 X137.2134 Y101.4779
N830 G1 X157.1538 Y81.5375
N840 G1 X156.4467 Y80.8304
N850 G1 X136.7891 Y100.4879
N860 G1 F300.0 X136.5063 Y100.2051
N870 G1 F500.0 X135.9406 Y100.7708
N880 G1 X137.2134 Y102.0436
N890 G1 X157.7195 Y81.5375
N900 G1 X156.4467 Y80.2647
N910 G1 X136.5063 Y100.2051
( Fenetre )
N920 S1000
N930 G0 Z5.0
N940 G0 X96.5013 Y17.4991
N950 G0 Z3.95
N960 G1 F300.0 Z-0.05
N970 G1 F500.0 Y22.0191
N980 G1 X101.0213
N990 G1 Y17.4991
N1000 G1 X96.5013
N1010 G0 Z5.0
N1020 G0 Y23.9791
N1030 G0 Z3.95
N1040 G1 F300.0 Z-0.05
N1050 G1 F500.0 Y28.4991
N1060 G1 X101.0213
N1070 G1 Y23.9791
N1080 G1 X96.5013
N1090 G0 Z5.0
N1100 G0 X102.9813
N1110 G0 Z3.95
N1120 G1 F300.0 Z-0.05
N1130 G1 F500.0 Y28.4991
N1140 G1 X107.5013
N1150 G1 Y23.9791
N1160 G1 X102.9813
N1170 G0 Z5.0
N1180 G0 Y22.0191
N1190 G0 Z3.95
N1200 G1 F300.0 Z-0.05
N1210 G1 F500.0 X107.5013
N1220 G1 Y17.4991
N1230 G1 X102.9813
N1240 G1 Y22.0191
N1250 G0 Z5.0
N1260 G0 X95.5013 Y42.9991
N1270 G0 Z3.95
N1280 G1 F300.0 Z-0.05
N1290 G1 F500.0 X90.9813
N1300 G1 Y47.5191
N1310 G1 X95.5013
N1320 G1 Y42.9991
N1330 G0 Z5.0
N1340 G0 X89.0213
N1350 G0 Z3.95
N1360 G1 F300.0 Z-0.05
N1370 G1 F500.0 X84.5013
N1380 G1 Y47.5191
N1390 G1 X89.0213
N1400 G1 Y42.9991
N1410 G0 Z5.0
N1420 G0 Y49.4791
N1430 G0 Z3.95
N1440 G1 F300.0 Z-0.05
N1450 G1 F500.0 X84.5013
N1460 G1 Y53.9991
N1470 G1 X89.0213
N1480 G1 Y49.4791
N1490 G0 Z5.0
N1500 G0 X90.9813
N1510 G0 Z3.95
N1520 G1 F300.0 Z-0.05
N1530 G1 F500.0 Y53.9991
N1540 G1 X95.5013
N1550 G1 Y49.4791
N1560 G1 X90.9813
N1570 G0 Z5.0
N1580 G0 Y90.9991
N1590 G0 Z3.95
N1600 G1 F300.0 Z-0.05
N1610 G1 F500.0 Y95.5191
N1620 G1 X95.5013
N1630 G1 Y90.9991
N1640 G1 X90.9813
N1650 G0 Z5.0
N1660 G0 X89.0213
N1670 G0 Z3.95
N1680 G1 F300.0 Z-0.05
N1690 G1 F500.0 X84.5013
N1700 G1 Y95.5191
N1710 G1 X89.0213
N1720 G1 Y90.9991
N1730 G0 Z5.0
N1740 G0 Y97.4791
N1750 G0 Z3.95
N1760 G1 F300.0 Z-0.05
N1770 G1 F500.0 X84.5013
N1780 G1 Y101.9991
N1790 G1 X89.0213
N1800 G1 Y97.4791
N1810 G0 Z5.0
N1820 G0 X90.9813
N1830 G0 Z3.95
N1840 G1 F300.0 Z-0.05
N1850 G1 F500.0 Y101.9991
N1860 G1 X95.5013
N1870 G1 Y97.4791
N1880 G1 X90.9813
N1890 G0 Z5.0
N1900 G0 X96.5013 Y116.4991
N1910 G0 Z3.95
N1920 G1 F300.0 Z-0.05
N1930 G1 F500.0 Y121.0191
N1940 G1 X101.0213
N1950 G1 Y116.4991
N1960 G1 X96.5013
N1970 G0 Z5.0
N1980 G0 X102.9813
N1990 G0 Z3.95
N2000 G1 F300.0 Z-0.05
N2010 G1 F500.0 Y121.0191
N2020 G1 X107.5013
N2030 G1 Y116.4991
N2040 G1 X102.9813
N2050 G0 Z5.0
N2060 G0 Y122.9791
N2070 G0 Z3.95
N2080 G1 F300.0 Z-0.05
N2090 G1 F500.0 Y127.4991
N2100 G1 X107.5013
N2110 G1 Y122.9791
N2120 G1 X102.9813
N2130 G0 Z5.0
N2140 G0 X101.0213
N2150 G0 Z3.95
N2160 G1 F300.0 Z-0.05
N2170 G1 F500.0 X96.5013
N2180 G1 Y127.4991
N2190 G1 X101.0213
N2200 G1 Y122.9791
( finition_contour )
N2210 S29000
N2220 G0 Z5.0
N2230 G0 X8.3013 Y4.4991
N2240 G1 F300.0 Z-0.05
N2250 G1 F500.0 X14.0
N2260 G0 Z0.95
N2270 G1 X18.0
N2280 G1 F300.0 Z-0.05
N2290 G1 F500.0 X42.0
N2300 G0 Z0.95
N2310 G1 X46.0
N2320 G1 F300.0 Z-0.05
N2330 G1 F500.0 X53.7013
N2340 G3 X54.2013 Y4.9991 I0.0 J0.5
N2350 G1 Y10.4991
N2360 G1 X54.0548 Y10.6455
N2370 G1 X54.2013 Y10.4991
N2380 G1 X56.0013
N2390 G3 X56.5013 Y10.9991 I0.0 J0.5
N2400 G1 Y16.9991
N2410 G3 X56.0013 Y17.4991 I-0.5 J0.0
N2420 G1 X54.2013
N2430 G1 X54.0548 Y17.3526
N2440 G1 X54.2013 Y17.4991
N2450 G1 Y22.4991
N2460 G1 X54.0548 Y22.6455
N2470 G1 X54.2013 Y22.4991
N2480 G1 X56.0013
N2490 G3 X56.5013 Y22.9991 I0.0 J0.5
N2500 G1 Y28.9991
N2510 G3 X56.0013 Y29.4991 I-0.5 J0.0
N2520 G1 X54.2013
N2530 G1 X54.0548 Y29.3526
N2540 G1 X54.2013 Y29.4991
N2550 G1 Y34.9991
N2560 G3 X53.7013 Y35.4991 I-0.5 J0.0
N2570 G1 X46.0
N2580 G0 Z0.95
N2590 G1 X42.0
N2600 G1 F300.0 Z-0.05
N2610 G1 F500.0 X19.0
N2620 G0 Z0.95
N2630 G1 X15.0
N2640 G1 F300.0 Z-0.05
N2650 G1 F500.0 X8.3013
N2660 G3 X7.8013 Y34.9991 I0.0 J-0.5
N2670 G1 Y29.4991
N2680 G1 X7.9477 Y29.3526
N2690 G1 X7.8013 Y29.4991
N2700 G1 X6.0013
N2710 G3 X5.5013 Y28.9991 I0.0 J-0.5
N2720 G1 Y22.9991
N2730 G3 X6.0013 Y22.4991 I0.5 J0.0
N2740 G1 X7.8013
N2750 G1 X7.9477 Y22.6455
N2760 G1 X7.8013 Y22.4991
N2770 G1 Y17.4991
N2780 G1 X7.9477 Y17.3526
N2790 G1 X7.8013 Y17.4991
N2800 G1 X6.0013
N2810 G3 X5.5013 Y16.9991 I0.0 J-0.5
N2820 G1 Y10.9991
N2830 G3 X6.0013 Y10.4991 I0.5 J0.0
N2840 G1 X7.8013
N2850 G1 X7.9477 Y10.6455
N2860 G1 X7.8013 Y10.4991
N2870 G1 Y4.9991
N2880 G3 X8.3013 Y4.4991 I0.5 J0.0
N2890 G0 Z5.0
N2900 G0 X59.5013 Y4.9942
N2910 G1 F300.0 Z-0.05
N2920 G3 F500.0 X60.0013 Y4.4991 I0.5 J0.0048
N2930 G1 X69.0
N2940 G0 Z0.95
N2950 G1 X73.0
N2960 G1 F300.0 Z-0.05
N2970 G1 F500.0 X106.0
N2980 G0 Z0.95
N2990 G1 X110.0
N3000 G1 F300.0 Z-0.05
N3010 G1 F500.0 X120.0013
N3020 G3 X120.5013 Y4.9991 I0.0 J0.5
N3030 G1 Y10.9991
N3040 G3 X120.0013 Y11.4991 I-0.5 J0.0
N3050 G1 X118.2013
N3060 G1 X118.0548 Y11.3526
N3070 G1 X118.2013 Y11.4991
N3080 G1 Y16.4991
N3090 G1 X118.0548 Y16.6455
N3100 G1 X118.2013 Y16.4991
N3110 G1 X120.0013
N3120 G3 X120.5013 Y16.9991 I0.0 J0.5
N3130 G1 Y22.9991
N3140 G3 X120.0013 Y23.4991 I-0.5 J0.0
N3150 G1 X118.2013
N3160 G1 X118.0548 Y23.3526
N3170 G1 X118.2013 Y23.4991
N3180 G1 Y28.4991
N3190 G1 X118.0548 Y28.6455
N3200 G1 X118.2013 Y28.4991
N3210 G1 X120.0013
N3220 G3 X120.5013 Y28.9991 I0.0 J0.5
N3230 G1 Y34.9991
N3240 G3 X120.3548 Y35.3526 I-0.5 J0.0
N3250 G1 X114.5472 Y41.1602
N3260 G1 X114.3401
N3270 G1 X114.5472
N3280 G1 X114.9008 Y41.5138
N3290 G3 Y42.2209 I-0.3536 J0.3536
N3300 G1 X108.975 Y48.1466
N3310 G0 Z0.95
N3320 G1 X106.1466 Y50.975
N3330 G1 F300.0 Z-0.05
N3340 G1 F500.0 X97.2231 Y59.8985
N3350 G3 X96.516 I-0.3536 J-0.3536
N3360 G1 X96.1624 Y59.545
N3370 G1 Y59.3379
N3380 G1 Y59.545
N3390 G1 X90.3548 Y65.3526
N3400 G3 X89.6477 I-0.3536 J-0.3536
N3410 G1 X83.8401 Y59.545
N3420 G1 Y59.3379
N3430 G1 Y59.545
N3440 G1 X83.4866 Y59.8985
N3450 G3 X82.7794 I-0.3536 J-0.3536
N3460 G1 X75.4916 Y52.6107
N3470 G0 Z0.95
N3480 G1 X72.6632 Y49.7823
N3490 G1 F300.0 Z-0.05
N3500 G1 F500.0 X65.1018 Y42.2209
N3510 G3 Y41.5138 I0.3536 J-0.3536
N3520 G1 X65.4553 Y41.1602
N3530 G1 X65.6624
N3540 G1 X65.4553
N3550 G1 X59.6477 Y35.3526
N3560 G3 X59.5013 Y34.9991 I0.3536 J-0.3536
N3570 G1 Y28.9991
N3580 G3 X60.0013 Y28.4991 I0.5 J0.0
N3590 G1 X61.8013
N3600 G1 X61.9477 Y28.6455
N3610 G1 X61.8013 Y28.4991
N3620 G1 Y23.4991
N3630 G1 X61.9477 Y23.3526
N3640 G1 X61.8013 Y23.4991
N3650 G1 X60.0013
N3660 G3 X59.5013 Y22.9991 I0.0 J-0.5
N3670 G1 Y16.9991
N3680 G3 X60.0013 Y16.4991 I0.5 J0.0
N3690 G1 X61.8013
N3700 G1 X61.9477 Y16.6455
N3710 G1 X61.8013 Y16.4991
N3720 G1 Y11.4991
N3730 G1 X61.9477 Y11.3526
N3740 G1 X61.8013 Y11.4991
N3750 G1 X60.0013
N3760 G3 X59.5013 Y10.9991 I0.0 J-0.5
N3770 G1 Y4.9991
N3780 G3 Y4.9942 I0.5 J0.0
N3790 G0 Z5.0
N3800 G0 X52.9672 Y38.4394
N3810 G1 F300.0 Z-0.05
N3820 G3 F500.0 X53.2249 Y38.5766 I-0.0959 J0.4907
N3830 G1 X87.1512 Y72.5029
N3840 G3 Y73.21 I-0.3536 J0.3536
N3850 G1 X81.5948 Y78.7664
N3860 G0 Z0.95
N3870 G1 X78.7664 Y81.5948
N3880 G1 F300.0 Z-0.05
N3890 G1 F500.0 X56.5948 Y103.7664
N3900 G0 Z0.95
N3910 G1 X53.7664 Y106.5948
N3920 G1 F300.0 Z-0.05
N3930 G1 F500.0 X48.5432 Y111.8181
N3940 G3 X47.8361 I-0.3536 J-0.3536
N3950 G1 X13.9097 Y77.8917
N3960 G3 Y77.1846 I0.3536 J-0.3536
N3970 G1 X20.133 Y70.9614
N3980 G0 Z0.95
N3990 G1 X22.9614 Y68.133
N4000 G1 F300.0 Z-0.05
N4010 G1 F500.0 X42.133 Y48.9614
N4020 G0 Z0.95
N4030 G1 X44.9614 Y46.133
N4040 G1 F300.0 Z-0.05
N4050 G1 F500.0 X52.5178 Y38.5766
N4060 G3 X52.9672 Y38.4394 I0.3536 J0.3536
N4070 G0 Z5.0
N4080 G0 X93.3122 Y71.6311
N4090 G1 F300.0 Z-0.05
N4100 G3 F500.0 X93.3448 Y71.5952 I0.3861 J0.3177
N4110 G1 X127.2711 Y37.6689
N4120 G3 X127.9782 I0.3536 J0.3536
N4130 G1 X133.7405 Y43.4311
N4140 G0 Z0.95
N4150 G1 X136.5689 Y46.2595
N4160 G1 F300.0 Z-0.05
N4170 G1 F500.0 X158.7405 Y68.4311
N4180 G0 Z0.95
N4190 G1 X161.5689 Y71.2595
N4200 G1 F300.0 Z-0.05
N4210 G1 F500.0 X166.5863 Y76.2769
N4220 G3 Y76.984 I-0.3536 J0.3536
N4230 G1 X132.6599 Y110.9104
N4240 G3 X131.9528 I-0.3536 J-0.3536
N4250 G1 X127.9354 Y106.893
N4260 G0 Z0.95
N4270 G1 X125.107 Y104.0646
N4280 G1 F300.0 Z-0.05
N4290 G1 F500.0 X100.9354 Y79.893
N4300 G0 Z0.95
N4310 G1 X98.107 Y77.0646
N4320 G1 F300.0 Z-0.05
N4330 G1 F500.0 X93.3448 Y72.3024
N4340 G3 X93.3122 Y71.6311 I0.3536 J-0.3536
N4350 G0 Z5.0
N4360 G0 X90.1852 Y79.5341
N4370 G1 F300.0 Z-0.05
N4380 G3 F500.0 X90.3548 Y79.6455 I-0.184 J0.4649
N4390 G1 X96.1624 Y85.4531
N4400 G1 Y85.6602
N4410 G1 Y85.4531
N4420 G1 X96.516 Y85.0996
N4430 G3 X97.2231 I0.3536 J0.3536
N4440 G1 X104.511 Y92.3874
N4450 G0 Z0.95
N4460 G1 X107.3394 Y95.2159
N4470 G1 F300.0 Z-0.05
N4480 G1 F500.0 X114.9008 Y102.7772
N4490 G3 Y103.4843 I-0.3536 J0.3536
N4500 G1 X114.5472 Y103.8379
N4510 G1 X114.3401
N4520 G1 X114.5472
N4530 G1 X120.3548 Y109.6455
N4540 G3 X120.5013 Y109.9991 I-0.3536 J0.3536
N4550 G1 Y115.9991
N4560 G3 X120.0013 Y116.4991 I-0.5 J0.0
N4570 G1 X118.2013
N4580 G1 X118.0548 Y116.3526
N4590 G1 X118.2013 Y116.4991
N4600 G1 Y121.4991
N4610 G1 X118.0548 Y121.6455
N4620 G1 X118.2013 Y121.4991
N4630 G1 X120.0013
N4640 G3 X120.5013 Y121.9991 I0.0 J0.5
N4650 G1 Y127.9991
N4660 G3 X120.0013 Y128.4991 I-0.5 J0.0
N4670 G1 X118.2013
N4680 G1 X118.0548 Y128.3526
N4690 G1 X118.2013 Y128.4991
N4700 G1 Y133.4991
N4710 G1 X118.0548 Y133.6455
N4720 G1 X118.2013 Y133.4991
N4730 G1 X120.0013
N4740 G3 X120.5013 Y133.9991 I0.0 J0.5
N4750 G1 Y139.9991
N4760 G3 X120.0013 Y140.4991 I-0.5 J0.0
N4770 G1 X111.0
N4780 G0 Z0.95
N4790 G1 X107.0
N4800 G1 F300.0 Z-0.05
N4810 G1 F500.0 X69.9815
N4820 G0 Z0.95
N4830 G1 X65.9815
N4840 G1 F300.0 Z-0.05
N4850 G1 F500.0 X60.0013
N4860 G3 X59.5013 Y139.9991 I0.0 J-0.5
N4870 G1 Y133.9991
N4880 G3 X60.0013 Y133.4991 I0.5 J0.0
N4890 G1 X61.8013
N4900 G1 X61.9477 Y133.6455
N4910 G1 X61.8013 Y133.4991
N4920 G1 Y128.4991
N4930 G1 X61.9477 Y128.3526
N4940 G1 X61.8013 Y128.4991
N4950 G1 X60.0013
N4960 G3 X59.5013 Y127.9991 I0.0 J-0.5
N4970 G1 Y121.9991
N4980 G3 X60.0013 Y121.4991 I0.5 J0.0
N4990 G1 X61.8013
N5000 G1 X61.9477 Y121.6455
N5010 G1 X61.8013 Y121.4991
N5020 G1 Y116.4991
N5030 G1 X61.9477 Y116.3526
N5040 G1 X61.8013 Y116.4991
N5050 G1 X60.0013
N5060 G3 X59.5013 Y115.9991 I0.0 J-0.5
N5070 G1 Y109.9991
N5080 G3 X59.6477 Y109.6455 I0.5 J0.0
N5090 G1 X65.4553 Y103.8379
N5100 G1 X65.6624
N5110 G1 X65.4553
N5120 G1 X65.1018 Y103.4843
N5130 G3 Y102.7772 I0.3536 J-0.3536
N5140 G1 X72.5253 Y95.3537
N5150 G0 Z0.95
N5160 G1 X75.3537 Y92.5253
N5170 G1 F300.0 Z-0.05
N5180 G1 F500.0 X82.7794 Y85.0996
N5190 G3 X83.4866 I0.3536 J0.3536
N5200 G1 X83.8401 Y85.4531
N5210 G1 Y85.6602
N5220 G1 Y85.4531
N5230 G1 X89.6477 Y79.6455
N5240 G3 X90.1852 Y79.5341 I0.3536 J0.3536
N5250 G0 Z5.0
N5260 G0 X126.9812 Y35.3831
N5270 G1 F300.0 Z-0.05
N5280 G3 F500.0 X126.8013 Y34.9991 I0.3201 J-0.3841
N5290 G1 Y29.4991
N5300 G1 X126.9477 Y29.3526
N5310 G1 X126.8013 Y29.4991
N5320 G1 X125.0013
N5330 G3 X124.5013 Y28.9991 I0.0 J-0.5
N5340 G1 Y22.9991
N5350 G3 X125.0013 Y22.4991 I0.5 J0.0
N5360 G1 X126.8013
N5370 G1 X126.9477 Y22.6455
N5380 G1 X126.8013 Y22.4991
N5390 G1 Y17.4991
N5400 G1 X126.9477 Y17.3526
N5410 G1 X126.8013 Y17.4991
N5420 G1 X125.0013
N5430 G3 X124.5013 Y16.9991 I0.0 J-0.5
N5440 G1 Y10.9991
N5450 G3 X125.0013 Y10.4991 I0.5 J0.0
N5460 G1 X126.8013
N5470 G1 X126.9477 Y10.6455
N5480 G1 X126.8013 Y10.4991
N5490 G1 Y4.9991
N5500 G3 X127.3013 Y4.4991 I0.5 J0.0
N5510 G1 X135.0
N5520 G0 Z0.95
N5530 G1 X139.0
N5540 G1 F300.0 Z-0.05
N5550 G1 F500.0 X163.0
N5560 G0 Z0.95
N5570 G1 X167.0
N5580 G1 F300.0 Z-0.05
N5590 G1 F500.0 X172.7013
N5600 G3 X173.2013 Y4.9991 I0.0 J0.5
N5610 G1 Y10.4991
N5620 G1 X173.0548 Y10.6455
N5630 G1 X173.2013 Y10.4991
N5640 G1 X175.0013
N5650 G3 X175.5013 Y10.9991 I0.0 J0.5
N5660 G1 Y16.9991
N5670 G3 X175.0013 Y17.4991 I-0.5 J0.0
N5680 G1 X173.2013
N5690 G1 X173.0548 Y17.3526
N5700 G1 X173.2013 Y17.4991
N5710 G1 Y22.4991
N5720 G1 X173.0548 Y22.6455
N5730 G1 X173.2013 Y22.4991
N5740 G1 X175.0013
N5750 G3 X175.5013 Y22.9991 I0.0 J0.5
N5760 G1 Y28.9991
N5770 G3 X175.0013 Y29.4991 I-0.5 J0.0
N5780 G1 X173.2013
N5790 G1 X173.0548 Y29.3526
N5800 G1 X173.2013 Y29.4991
N5810 G1 Y34.9991
N5820 G3 X172.7013 Y35.4991 I-0.5 J0.0
N5830 G1 X166.0
N5840 G0 Z0.95
N5850 G1 X162.0
N5860 G1 F300.0 Z-0.05
N5870 G1 F500.0 X139.0
N5880 G0 Z0.95
N5890 G1 X135.0
N5900 G1 F300.0 Z-0.05
N5910 G1 F500.0 X127.3013
N5920 G3 X126.9812 Y35.3831 I0.0 J-0.5
N5930 G0 Z5.0
N5940 G0 G53 Z0
N5945 G0 G53 X0
N5950 M5
N5960 M30


