;FLAVOR:Marlin
;TIME:3015
;Filament used: 1.30945m
;Layer height: 0.3
;MINX:120.205
;MINY:120.188
;MINZ:0.3
;MAXX:179.705
;MAXY:179.788
;MAXZ:75
;Generated with Cura_SteamEngine 4.8.0
M140 S60
M105
M190 S60
M104 S220
M105
M109 S220
M82 ;absolute extrusion mode
M92 E426.65 ; calibration extruder
M301 P18.71 I2.00 D43.68 ; PID buse
M304 P62.96 I4.32 D229.54 ; PID plateau
G28 ; home all axes
 M117 Purge extruder
 G92 E0 ; reset extruder
 G1 Z1.0 F3000 ; move z up little to prevent scratching of surface
 G1 X2 Y20 Z0.3 F5000.0 ; move to start-line position
 G1 X2 Y200.0 Z0.3 F1500.0 E15 ; draw 1st line
 G1 X2 Y200.0 Z0.4 F5000.0 ; move to side a little
 G1 X2 Y20 Z0.4 F1500.0 E30 ; draw 2nd line
 G92 E0 ; reset extruder
 G1 Z1.0 F3000 ; move z up little to prevent scratching of surface
G92 E0
G92 E0
G1 F1800 E-3
;LAYER_COUNT:250
;LAYER:0
M106 S12.8
M204 S500
G0 F6000 X142.342 Y142.121 Z0.3
;TYPE:SKIRT
G1 F1800 E0
G1 X143.059 Y141.486 E0.04289
G1 X143.346 Y141.261 E0.05922
G1 X144.126 Y140.721 E0.1017
G1 X144.434 Y140.534 E0.11784
G1 X145.307 Y140.076 E0.16199
G1 X145.637 Y139.928 E0.17818
G1 X146.556 Y139.582 E0.22216
G1 X146.901 Y139.476 E0.23832
G1 X147.782 Y139.259 E0.27895
G1 X148.142 Y139.192 E0.29535
G1 X149.11 Y139.073 E0.33903
G1 X149.468 Y139.051 E0.35509
G1 X150.441 Y139.051 E0.39866
G1 X150.801 Y139.073 E0.41481
G1 X151.797 Y139.197 E0.45976
G1 X152.156 Y139.265 E0.47612
G1 X153.012 Y139.477 E0.51561
G1 X153.357 Y139.583 E0.53177
G1 X154.292 Y139.936 E0.57653
G1 X154.62 Y140.084 E0.59264
G1 X155.474 Y140.533 E0.63585
G1 X155.784 Y140.721 E0.65209
G1 X156.567 Y141.263 E0.69473
G1 X156.854 Y141.488 E0.71106
G1 X157.605 Y142.157 E0.7561
G1 X157.816 Y142.371 E0.76956
G1 X157.845 Y142.397 E0.7713
G1 X158.488 Y143.13 E0.81497
G1 X158.709 Y143.415 E0.83112
G1 X159.207 Y144.135 E0.87032
G1 X159.395 Y144.442 E0.88644
G1 X159.881 Y145.368 E0.93327
G1 X160.028 Y145.699 E0.94949
G1 X160.356 Y146.571 E0.99121
G1 X160.463 Y146.916 E1.00739
G1 X160.693 Y147.856 E1.05073
G1 X160.758 Y148.215 E1.06706
G1 X160.87 Y149.144 E1.10897
G1 X160.892 Y149.502 E1.12503
G1 X160.891 Y150.496 E1.16954
G1 X160.868 Y150.857 E1.18574
G1 X160.752 Y151.793 E1.22798
G1 X160.686 Y152.151 E1.24428
G1 X160.465 Y153.052 E1.28582
G1 X160.359 Y153.396 E1.30194
G1 X160.007 Y154.327 E1.34651
G1 X159.858 Y154.657 E1.36273
G1 X159.394 Y155.534 E1.40716
G1 X159.205 Y155.843 E1.42338
G1 X158.695 Y156.581 E1.46355
G1 X158.473 Y156.866 E1.47973
G1 X157.788 Y157.636 E1.52588
G1 X157.581 Y157.84 E1.5389
G1 X157.546 Y157.879 E1.54124
G1 X156.816 Y158.52 E1.58475
G1 X156.53 Y158.742 E1.60096
G1 X155.765 Y159.267 E1.64251
G1 X155.457 Y159.453 E1.65862
G1 X154.6 Y159.902 E1.70195
G1 X154.27 Y160.05 E1.71814
G1 X153.351 Y160.396 E1.76212
G1 X153.006 Y160.502 E1.77828
G1 X152.108 Y160.722 E1.81968
G1 X151.749 Y160.788 E1.83603
G1 X150.773 Y160.905 E1.88005
G1 X150.413 Y160.926 E1.8962
G1 X149.462 Y160.925 E1.93879
G1 X149.104 Y160.903 E1.95485
G1 X148.115 Y160.78 E1.99948
G1 X147.755 Y160.712 E2.01588
G1 X146.875 Y160.493 E2.05649
G1 X146.53 Y160.386 E2.07267
G1 X145.605 Y160.034 E2.11699
G1 X145.276 Y159.885 E2.13316
G1 X144.413 Y159.429 E2.17687
G1 X144.105 Y159.241 E2.19303
G1 X143.344 Y158.714 E2.23449
G1 X143.058 Y158.49 E2.25075
G1 X142.327 Y157.841 E2.29453
G1 X142.072 Y157.585 E2.31071
G1 X141.452 Y156.883 E2.35265
G1 X141.229 Y156.599 E2.36882
G1 X140.668 Y155.786 E2.41306
G1 X140.481 Y155.475 E2.42931
G1 X140.036 Y154.623 E2.47235
G1 X139.888 Y154.292 E2.48859
G1 X139.542 Y153.367 E2.53281
G1 X139.437 Y153.023 E2.54892
G1 X139.217 Y152.117 E2.59067
G1 X139.152 Y151.758 E2.60701
G1 X139.039 Y150.815 E2.64954
G1 X139.018 Y150.463 E2.66533
G1 X139.017 Y149.527 E2.70725
G1 X139.038 Y149.166 E2.72344
G1 X139.157 Y148.186 E2.76765
G1 X139.223 Y147.828 E2.78395
G1 X139.446 Y146.921 E2.82578
G1 X139.552 Y146.578 E2.84185
G1 X139.898 Y145.661 E2.88574
G1 X140.047 Y145.33 E2.902
G1 X140.505 Y144.461 E2.94599
G1 X140.693 Y144.152 E2.96219
G1 X141.224 Y143.384 E3.004
G1 X141.447 Y143.099 E3.0202
G1 X142.087 Y142.376 E3.06344
G1 X142.342 Y142.121 E3.07959
G0 F6000 X142.631 Y142.41
G1 F1800 X143.311 Y141.807 E3.12029
G1 X143.598 Y141.582 E3.13662
G1 X144.338 Y141.07 E3.17692
G1 X144.646 Y140.883 E3.19306
G1 X145.474 Y140.448 E3.23494
G1 X145.804 Y140.3 E3.25114
G1 X146.676 Y139.972 E3.29286
G1 X147.021 Y139.866 E3.30902
G1 X147.857 Y139.66 E3.34758
G1 X148.217 Y139.593 E3.36397
G1 X149.135 Y139.48 E3.40539
G1 X149.493 Y139.458 E3.42146
G1 X150.416 Y139.458 E3.46279
G1 X150.776 Y139.48 E3.47894
G1 X151.721 Y139.598 E3.52159
G1 X152.08 Y139.666 E3.53795
G1 X152.892 Y139.867 E3.57541
G1 X153.237 Y139.973 E3.59157
G1 X154.124 Y140.308 E3.63403
G1 X154.452 Y140.456 E3.65015
G1 X155.262 Y140.882 E3.69113
G1 X155.572 Y141.07 E3.70737
G1 X156.315 Y141.584 E3.74782
G1 X156.602 Y141.809 E3.76415
G1 X157.314 Y142.444 E3.80688
G1 X157.532 Y142.665 E3.82078
G1 X157.584 Y142.713 E3.82395
G1 X158.166 Y143.38 E3.86359
G1 X158.387 Y143.665 E3.87974
G1 X158.859 Y144.348 E3.91692
G1 X159.047 Y144.655 E3.93304
G1 X159.508 Y145.533 E3.97745
G1 X159.655 Y145.864 E3.99367
G1 X159.966 Y146.692 E4.03327
G1 X160.073 Y147.037 E4.04945
G1 X160.291 Y147.928 E4.09053
G1 X160.356 Y148.287 E4.10687
G1 X160.463 Y149.169 E4.14665
G1 X160.485 Y149.527 E4.16271
G1 X160.484 Y150.47 E4.20494
G1 X160.461 Y150.831 E4.22114
G1 X160.351 Y151.719 E4.26121
G1 X160.285 Y152.077 E4.27751
G1 X160.075 Y152.932 E4.31694
G1 X159.969 Y153.276 E4.33306
G1 X159.635 Y154.159 E4.37534
G1 X159.486 Y154.489 E4.39155
G1 X159.046 Y155.321 E4.4337
G1 X158.857 Y155.63 E4.44992
G1 X158.373 Y156.33 E4.48803
G1 X158.151 Y156.615 E4.50421
G1 X157.501 Y157.346 E4.54801
G1 X157.271 Y157.573 E4.56248
G1 X157.23 Y157.618 E4.56521
G1 X156.566 Y158.198 E4.60469
G1 X156.28 Y158.42 E4.6209
G1 X155.554 Y158.918 E4.66033
G1 X155.246 Y159.104 E4.67644
G1 X154.433 Y159.53 E4.71754
G1 X154.103 Y159.678 E4.73374
G1 X153.231 Y160.006 E4.77546
G1 X152.886 Y160.112 E4.79162
G1 X152.034 Y160.321 E4.83091
G1 X151.675 Y160.387 E4.84725
G1 X150.75 Y160.498 E4.88897
G1 X150.39 Y160.519 E4.90512
G1 X149.487 Y160.518 E4.94556
G1 X149.129 Y160.496 E4.96162
G1 X148.191 Y160.379 E5.00395
G1 X147.831 Y160.311 E5.02036
G1 X146.996 Y160.103 E5.05889
G1 X146.651 Y159.996 E5.07507
G1 X145.773 Y159.663 E5.11712
G1 X145.444 Y159.514 E5.13329
G1 X144.625 Y159.081 E5.17478
G1 X144.317 Y158.893 E5.19094
G1 X143.596 Y158.392 E5.23026
G1 X143.31 Y158.168 E5.24652
G1 X142.616 Y157.553 E5.28805
G1 X142.361 Y157.297 E5.30423
G1 X141.772 Y156.631 E5.34405
G1 X141.549 Y156.347 E5.36022
G1 X141.017 Y155.576 E5.40216
G1 X140.83 Y155.265 E5.41841
G1 X140.408 Y154.456 E5.45928
G1 X140.26 Y154.125 E5.47551
G1 X139.932 Y153.248 E5.51744
G1 X139.827 Y152.904 E5.53355
G1 X139.619 Y152.045 E5.57313
G1 X139.554 Y151.686 E5.58947
G1 X139.446 Y150.791 E5.62984
G1 X139.425 Y150.439 E5.64563
G1 X139.425 Y149.551 E5.68539
G1 X139.446 Y149.19 E5.70159
G1 X139.558 Y148.26 E5.74353
G1 X139.624 Y147.902 E5.75984
G1 X139.836 Y147.041 E5.79954
G1 X139.942 Y146.698 E5.81562
G1 X140.27 Y145.829 E5.85722
G1 X140.419 Y145.498 E5.87347
G1 X140.854 Y144.673 E5.91524
G1 X141.042 Y144.364 E5.93143
G1 X141.545 Y143.636 E5.97106
G1 X141.768 Y143.351 E5.98727
G1 X142.376 Y142.665 E6.02831
G1 X142.631 Y142.41 E6.04446
G0 F6000 X142.919 Y142.698
G1 F1800 X143.563 Y142.128 E6.08298
G1 X143.85 Y141.903 E6.09931
G1 X144.549 Y141.419 E6.13738
G1 X144.857 Y141.232 E6.15352
G1 X145.641 Y140.82 E6.19318
G1 X145.971 Y140.672 E6.20937
G1 X146.796 Y140.362 E6.24884
G1 X147.141 Y140.256 E6.265
G1 X147.932 Y140.062 E6.30148
G1 X148.292 Y139.995 E6.31787
G1 X149.16 Y139.887 E6.35704
G1 X149.518 Y139.865 E6.37311
G1 X150.392 Y139.865 E6.41224
G1 X150.752 Y139.887 E6.4284
G1 X151.645 Y139.999 E6.4687
G1 X152.004 Y140.067 E6.48506
G1 X152.772 Y140.257 E6.52049
G1 X153.117 Y140.363 E6.53665
G1 X153.957 Y140.68 E6.57686
G1 X154.285 Y140.828 E6.59297
G1 X155.05 Y141.231 E6.63169
G1 X155.36 Y141.419 E6.64793
G1 X156.063 Y141.905 E6.6862
G1 X156.35 Y142.13 E6.70253
G1 X157.024 Y142.731 E6.74297
G1 X157.271 Y142.981 E6.75871
G1 X157.322 Y143.029 E6.76185
G1 X157.843 Y143.63 E6.79746
G1 X158.064 Y143.915 E6.81361
G1 X158.511 Y144.561 E6.84879
G1 X158.699 Y144.868 E6.86491
G1 X159.135 Y145.699 E6.90694
G1 X159.282 Y146.03 E6.92316
G1 X159.577 Y146.813 E6.96063
G1 X159.684 Y147.158 E6.9768
G1 X159.89 Y148.001 E7.01566
G1 X159.955 Y148.36 E7.032
G1 X160.056 Y149.194 E7.06962
G1 X160.078 Y149.552 E7.08569
G1 X160.077 Y150.444 E7.12563
G1 X160.054 Y150.805 E7.14183
G1 X159.95 Y151.645 E7.17973
G1 X159.884 Y152.003 E7.19604
G1 X159.685 Y152.812 E7.23334
G1 X159.579 Y153.156 E7.24946
G1 X159.263 Y153.991 E7.28944
G1 X159.114 Y154.321 E7.30566
G1 X158.698 Y155.109 E7.34556
G1 X158.509 Y155.418 E7.36178
G1 X158.051 Y156.08 E7.39783
G1 X157.829 Y156.365 E7.41401
G1 X157.214 Y157.056 E7.45543
G1 X156.962 Y157.305 E7.4713
G1 X156.914 Y157.356 E7.47443
G1 X156.316 Y157.875 E7.50989
G1 X156.03 Y158.097 E7.52611
G1 X155.343 Y158.569 E7.56343
G1 X155.035 Y158.755 E7.57954
G1 X154.266 Y159.158 E7.61842
G1 X153.936 Y159.306 E7.63462
G1 X153.111 Y159.616 E7.67409
G1 X152.766 Y159.722 E7.69025
G1 X151.96 Y159.919 E7.7274
G1 X151.601 Y159.985 E7.74375
G1 X150.726 Y160.091 E7.78322
G1 X150.366 Y160.112 E7.79937
G1 X149.512 Y160.111 E7.83761
G1 X149.154 Y160.089 E7.85368
G1 X148.267 Y159.978 E7.89371
G1 X147.907 Y159.91 E7.91011
G1 X147.117 Y159.714 E7.94656
G1 X146.772 Y159.607 E7.96274
G1 X145.941 Y159.291 E8.00255
G1 X145.612 Y159.142 E8.01872
G1 X144.838 Y158.732 E8.05795
G1 X144.53 Y158.544 E8.07411
G1 X143.847 Y158.071 E8.11131
G1 X143.561 Y157.847 E8.12758
G1 X142.905 Y157.265 E8.16685
G1 X142.65 Y157.009 E8.18303
G1 X142.093 Y156.379 E8.22069
G1 X141.87 Y156.095 E8.23686
G1 X141.367 Y155.365 E8.27656
G1 X141.18 Y155.054 E8.29281
G1 X140.781 Y154.289 E8.33145
G1 X140.633 Y153.958 E8.34768
G1 X140.322 Y153.128 E8.38738
G1 X140.217 Y152.784 E8.40348
G1 X140.02 Y151.972 E8.4409
G1 X139.955 Y151.613 E8.45724
G1 X139.854 Y150.766 E8.49544
G1 X139.833 Y150.414 E8.51123
G1 X139.832 Y149.574 E8.54884
G1 X139.853 Y149.213 E8.56504
G1 X139.959 Y148.334 E8.60469
G1 X140.025 Y147.976 E8.62099
G1 X140.225 Y147.162 E8.65852
G1 X140.331 Y146.819 E8.6746
G1 X140.642 Y145.996 E8.714
G1 X140.791 Y145.665 E8.73025
G1 X141.202 Y144.885 E8.76974
G1 X141.39 Y144.576 E8.78593
G1 X141.867 Y143.887 E8.82346
G1 X142.09 Y143.602 E8.83967
G1 X142.664 Y142.953 E8.87847
G1 X142.919 Y142.698 E8.89462
G0 F6000 X143.208 Y142.987
G1 F1800 X143.815 Y142.449 E8.93094
G1 X144.102 Y142.224 E8.94727
G1 X144.761 Y141.768 E8.98316
G1 X145.069 Y141.581 E8.99929
G1 X145.808 Y141.192 E9.03669
G1 X146.138 Y141.044 E9.05289
G1 X146.916 Y140.752 E9.0901
G1 X147.261 Y140.646 E9.10626
G1 X148.006 Y140.463 E9.14062
G1 X148.366 Y140.396 E9.15701
G1 X149.185 Y140.295 E9.19397
G1 X149.543 Y140.273 E9.21003
G1 X150.367 Y140.273 E9.24693
G1 X150.727 Y140.295 E9.26308
G1 X151.569 Y140.4 E9.30108
G1 X151.928 Y140.468 E9.31744
G1 X152.652 Y140.647 E9.35084
G1 X152.997 Y140.753 E9.367
G1 X153.789 Y141.052 E9.40491
G1 X154.117 Y141.2 E9.42103
G1 X154.839 Y141.58 E9.45756
G1 X155.149 Y141.768 E9.4738
G1 X155.811 Y142.226 E9.50985
G1 X156.098 Y142.451 E9.52618
G1 X156.734 Y143.018 E9.56433
G1 X156.981 Y143.268 E9.58007
G1 X157.059 Y143.344 E9.58495
G1 X157.521 Y143.88 E9.61664
G1 X157.742 Y144.165 E9.63279
G1 X158.163 Y144.774 E9.66594
G1 X158.351 Y145.081 E9.68206
G1 X158.763 Y145.865 E9.72172
G1 X158.91 Y146.196 E9.73794
G1 X159.187 Y146.934 E9.77324
G1 X159.294 Y147.279 E9.78942
G1 X159.488 Y148.074 E9.82606
G1 X159.553 Y148.433 E9.8424
G1 X159.648 Y149.219 E9.87786
G1 X159.67 Y149.577 E9.89392
G1 X159.669 Y150.418 E9.93158
G1 X159.646 Y150.779 E9.94778
G1 X159.548 Y151.572 E9.98356
G1 X159.482 Y151.93 E9.99986
G1 X159.295 Y152.691 E10.03495
G1 X159.189 Y153.035 E10.05107
G1 X158.892 Y153.823 E10.08879
G1 X158.743 Y154.153 E10.105
G1 X158.35 Y154.896 E10.14264
G1 X158.161 Y155.205 E10.15886
G1 X157.729 Y155.829 E10.19285
G1 X157.507 Y156.114 E10.20903
G1 X156.928 Y156.766 E10.24807
G1 X156.676 Y157.015 E10.26394
G1 X156.599 Y157.093 E10.26885
G1 X156.066 Y157.553 E10.30038
G1 X155.78 Y157.775 E10.31659
G1 X155.132 Y158.22 E10.35179
G1 X154.824 Y158.406 E10.3679
G1 X154.099 Y158.786 E10.40456
G1 X153.769 Y158.934 E10.42075
G1 X152.991 Y159.226 E10.45797
G1 X152.646 Y159.332 E10.47413
G1 X151.886 Y159.518 E10.50917
G1 X151.527 Y159.584 E10.52551
G1 X150.702 Y159.684 E10.56273
G1 X150.342 Y159.705 E10.57888
G1 X149.537 Y159.703 E10.61493
G1 X149.179 Y159.681 E10.63099
G1 X148.342 Y159.577 E10.66876
G1 X147.982 Y159.509 E10.68517
G1 X147.238 Y159.324 E10.7195
G1 X146.893 Y159.217 E10.73567
G1 X146.11 Y158.919 E10.77319
G1 X145.781 Y158.77 E10.78936
G1 X145.051 Y158.384 E10.82634
G1 X144.743 Y158.196 E10.8425
G1 X144.099 Y157.75 E10.87758
G1 X143.813 Y157.526 E10.89385
G1 X143.194 Y156.977 E10.9309
G1 X142.939 Y156.721 E10.94708
G1 X142.414 Y156.128 E10.98255
G1 X142.191 Y155.844 E10.99872
G1 X141.717 Y155.155 E11.03617
G1 X141.53 Y154.844 E11.05242
G1 X141.153 Y154.123 E11.08886
G1 X141.005 Y153.792 E11.10509
G1 X140.712 Y153.009 E11.14253
G1 X140.607 Y152.665 E11.15864
G1 X140.422 Y151.899 E11.19393
G1 X140.357 Y151.54 E11.21027
G1 X140.261 Y150.742 E11.24626
G1 X140.24 Y150.39 E11.26205
G1 X140.239 Y149.598 E11.29752
G1 X140.26 Y149.237 E11.31371
G1 X140.361 Y148.407 E11.35115
G1 X140.427 Y148.049 E11.36746
G1 X140.615 Y147.282 E11.40282
G1 X140.721 Y146.939 E11.4189
G1 X141.014 Y146.164 E11.456
G1 X141.163 Y145.833 E11.47225
G1 X141.551 Y145.097 E11.50951
G1 X141.739 Y144.788 E11.52571
G1 X142.188 Y144.139 E11.56105
G1 X142.411 Y143.854 E11.57726
G1 X142.953 Y143.242 E11.61386
G1 X143.208 Y142.987 E11.63001
G0 F6000 X143.496 Y143.275
G1 F1800 X144.066 Y142.77 E11.66412
G1 X144.353 Y142.545 E11.68045
G1 X144.973 Y142.116 E11.71421
G1 X145.281 Y141.929 E11.73035
G1 X145.975 Y141.565 E11.76544
G1 X146.305 Y141.417 E11.78164
G1 X147.036 Y141.142 E11.81661
G1 X147.381 Y141.036 E11.83277
G1 X148.081 Y140.864 E11.86505
G1 X148.441 Y140.797 E11.88145
G1 X149.21 Y140.702 E11.91615
G1 X149.568 Y140.68 E11.93221
G1 X150.342 Y140.68 E11.96687
G1 X150.702 Y140.702 E11.98302
G1 X151.493 Y140.8 E12.01872
G1 X151.852 Y140.868 E12.03508
G1 X152.532 Y141.037 E12.06646
G1 X152.877 Y141.143 E12.08262
G1 X153.621 Y141.424 E12.11823
G1 X153.949 Y141.572 E12.13435
G1 X154.627 Y141.929 E12.16866
G1 X154.937 Y142.117 E12.1849
G1 X155.56 Y142.547 E12.2188
G1 X155.847 Y142.772 E12.23513
G1 X156.444 Y143.304 E12.27094
G1 X156.691 Y143.554 E12.28667
G1 X156.794 Y143.658 E12.29323
G1 X157.199 Y144.13 E12.32108
G1 X157.42 Y144.415 E12.33723
G1 X157.815 Y144.987 E12.36836
G1 X158.003 Y145.294 E12.38448
G1 X158.39 Y146.03 E12.42172
G1 X158.537 Y146.361 E12.43794
G1 X158.797 Y147.055 E12.47113
G1 X158.904 Y147.4 E12.4873
G1 X159.087 Y148.146 E12.5217
G1 X159.152 Y148.505 E12.53804
G1 X159.241 Y149.244 E12.57137
G1 X159.263 Y149.602 E12.58743
G1 X159.262 Y150.392 E12.62281
G1 X159.239 Y150.753 E12.63901
G1 X159.147 Y151.498 E12.67262
G1 X159.081 Y151.856 E12.68892
G1 X158.906 Y152.571 E12.72189
G1 X158.8 Y152.915 E12.73801
G1 X158.52 Y153.655 E12.77344
G1 X158.371 Y153.985 E12.78965
G1 X158.002 Y154.683 E12.82501
G1 X157.813 Y154.992 E12.84123
G1 X157.407 Y155.578 E12.87316
G1 X157.185 Y155.863 E12.88933
G1 X156.641 Y156.475 E12.926
G1 X156.389 Y156.724 E12.94187
G1 X156.285 Y156.828 E12.94845
G1 X155.816 Y157.231 E12.97614
G1 X155.53 Y157.453 E12.99236
G1 X154.921 Y157.87 E13.02541
G1 X154.613 Y158.056 E13.04152
G1 X153.932 Y158.413 E13.07595
G1 X153.602 Y158.561 E13.09215
G1 X152.871 Y158.836 E13.12713
G1 X152.526 Y158.942 E13.14329
G1 X151.812 Y159.117 E13.17621
G1 X151.453 Y159.183 E13.19255
G1 X150.678 Y159.276 E13.22751
G1 X150.318 Y159.297 E13.24366
G1 X149.562 Y159.296 E13.27751
G1 X149.204 Y159.274 E13.29357
G1 X148.418 Y159.176 E13.32905
G1 X148.058 Y159.108 E13.34545
G1 X147.359 Y158.934 E13.37771
G1 X147.014 Y158.827 E13.39388
G1 X146.278 Y158.548 E13.42913
G1 X145.949 Y158.399 E13.44531
